X:30
T:The Rights of Man
C:from the playing of Tony Dunn
N:from the playing of Tony Dunn
I:abc2nwc
M:4/4
L:1/8
K:G
GA|: (3Bcd AB GAGF|EFGA B2ef|gfed edBd|cBAG A2GA|
(3Bcd AB GAGF|EFGA B2ef|gfed Bgfg|[1e2E2E2GA:|[2e2E2E2ga
|:babg efga|babg egfe|d2d^c defg|afbf afdf|
edef gfga| (3bag af gfef|gfed Bgfg|[1e2E2E2ga:|[2e2E2E2|]
